X: 31230
T: Paddy Fahey's
R: reel
M: 4/4
K: Gdorian
BDGA BDGB|AD^FA d2 {e}dc|BDGA BDGB|AdAG DGGA|
BDGA BDGB|AD^FA d2 dc|(3=Bcd g^f gdBd|c2 =BG DGGA||
[K:G] (3Bcd gd adgd|Bdgd cAAc|Bdad Bdgd|`~c2 BG DGGA|
(3Bcd gd Bdgd|(3Bcd fa ~g3 a|bg ~g2 dcBd|~c2 BG DGGA||

